icons/inkscape-light.svg

<svg width="256" height="256" viewBox="0 0 256 256" fill="none" xmlns="http://www.w3.org/2000/svg">
<path d="M196 0H60C26.8629 0 0 26.8629 0 60V196C0 229.137 26.8629 256 60 256H196C229.137 256 256 229.137 256 196V60C256 26.8629 229.137 0 196 0Z" fill="#F4F2ED"/>
<path d="M211.593 115.34L142.458 43.4457C133.878 35.1834 119.779 35.1834 111.838 43.4457L45.1205 112.849C19.8301 138.535 62.2681 136.473 77.3491 146.204C84.3039 150.807 56.8561 156.759 62.8291 162.831C68.6495 168.941 96.1426 174.443 101.963 180.363C107.783 186.435 90.3058 192.899 96.1633 198.971C101.835 205.043 114.408 199.259 116.867 213.066C118.645 223.288 140.705 218.152 151.063 209.44C157.527 203.859 139.76 203.863 145.581 197.754C150.799 192.4 155.786 190.019 160.324 188.551C168.45 185.874 177.731 186.472 181.171 177.57C184.084 170.178 159.449 164.395 166.099 159.643C181.972 148.295 238.509 142.648 211.593 115.34ZM135.083 164.729C126.313 167.748 86.1313 148.443 96.6789 148.443C98.4939 148.448 157.952 156.962 135.083 164.729ZM188.501 185.667C180.883 193.521 189.825 201.751 197.279 196.326C199.272 194.829 197.119 187.536 188.501 185.667ZM194.087 178.053C194.087 181.761 220.128 183.877 218.692 177.17C216.617 165.872 196.966 166.754 194.087 178.053Z" fill="#212121"/>
<path d="M68.402 199.862C74.4946 206.276 83.7099 198.459 86.6758 189.438C80.7481 180.016 58.8526 190.04 68.402 199.862Z" fill="#212121"/>
<path d="M139.426 52.0587L120.946 83.3675L88.1937 138.89C81.8 136.456 74.9525 134.971 68.5587 133.816C66.0837 133.032 63.5675 132.331 61.0512 131.671C56.3488 130.392 47.81 128.041 45.6238 126.02C45.9125 125.154 47.0263 122.802 51.1925 118.554L82.8725 85.6362L117.935 49.1712C120.204 46.82 123.421 45.5 127.051 45.5C130.681 45.5 134.229 46.8613 136.786 49.295L139.426 52.0587Z" fill="#424242"/>
<path d="M165.414 79.0363C165.29 79.4488 165.084 79.7787 164.877 80.0262L152.296 69.6725L149.821 84.8938L139.468 79.2425L122.596 90.05L120.946 83.3675L117.028 67.3212L108.035 87.08L85.5538 86.915C84.1513 86.915 83.285 86.42 82.8725 85.6362L117.935 49.1712C120.204 46.82 123.421 45.5 127.051 45.5C130.681 45.5 134.229 46.8613 136.786 49.295L139.426 52.0588L165.414 79.0363Z" fill="#FAFAFA"/>
</svg>

<svg xmlns="http://www.w3.org/2000/svg" width="256" height="256" fill="none"><path fill="#F4F2ED" d="M196 0H60C26.863 0 0 26.863 0 60v136c0 33.137 26.863 60 60 60h136c33.137 0 60-26.863 60-60V60c0-33.137-26.863-60-60-60"/><path fill="#212121" d="m211.593 115.34-69.135-71.894c-8.58-8.263-22.679-8.263-30.62 0l-66.717 69.403c-25.29 25.686 17.147 23.624 32.228 33.355 6.955 4.603-20.493 10.555-14.52 16.627 5.82 6.11 33.314 11.612 39.134 17.532 5.82 6.072-11.657 12.536-5.8 18.608 5.672 6.072 18.245.288 20.704 14.095 1.778 10.222 23.838 5.086 34.196-3.626 6.464-5.581-11.303-5.577-5.482-11.686 5.218-5.354 10.205-7.735 14.743-9.203 8.126-2.677 17.407-2.079 20.847-10.981 2.913-7.392-21.722-13.175-15.072-17.927 15.873-11.348 72.41-16.995 45.494-44.303m-76.51 49.389c-8.77 3.019-48.952-16.286-38.404-16.286 1.815.005 61.273 8.519 38.404 16.286m53.418 20.938c-7.618 7.854 1.324 16.084 8.778 10.659 1.993-1.497-.16-8.79-8.778-10.659m5.586-7.614c0 3.708 26.041 5.824 24.605-.883-2.075-11.298-21.726-10.416-24.605.883"/><path fill="#212121" d="M68.402 199.862c6.093 6.414 15.308-1.403 18.274-10.424-5.928-9.422-27.823.602-18.274 10.424"/><path fill="#424242" d="m139.426 52.059-18.48 31.309-32.752 55.522c-6.394-2.434-13.242-3.919-19.635-5.074a156 156 0 0 0-7.508-2.145c-4.702-1.279-13.241-3.63-15.427-5.651.288-.866 1.402-3.218 5.569-7.466l31.68-32.918 35.062-36.465c2.269-2.351 5.486-3.671 9.116-3.671s7.178 1.361 9.735 3.795z"/><path fill="#FAFAFA" d="M165.414 79.036c-.124.413-.33.743-.537.99l-12.581-10.353-2.475 15.22-10.353-5.65-16.872 10.807-1.65-6.682-3.918-16.047-8.993 19.759-22.481-.165c-1.403 0-2.269-.495-2.681-1.279l35.062-36.465c2.269-2.351 5.486-3.671 9.116-3.671s7.178 1.361 9.735 3.795l2.64 2.764z"/></svg>
